X: 1
T: God Rest Ye Merry, Gentlemen   [Cm]
Z: John Chambers <jc:trillian.mit.edu>
M: 4/4
L: 1/4
K: Cm
|: C |\
"Cm"CG "G7"GF | "Cm"ED "Ab"C"Eb"B, |\
"Ab"C"G7"D "Cm"E"Fm"F | "G7"G3 :|\
G |\
"Fm"AF GA | "Eb"Bc "G7"GF |\
"Cm"EC "F7"DE |
"Bb"F2 "Bb7"EF ||\
"Eb"G2 "Ab"A"Eb"G | "Fm"GF "G7"ED |\
"Cm"C2 "F7"E/D/C | "Bb"F2 "Bb7"EF ||\
"Eb"GA B"Cm"c | "Fm"GF "G7"ED |\
"Cm"C2 z2 | z3 |]
